src/icons/outline/symbols/close.svg

<svg width="24" height="24" viewBox="0 0 24 24" fill="none" xmlns="http://www.w3.org/2000/svg">
<g clip-path="url(#clip0_4191_632)">
<path d="M13.3531 11.9984L22.7224 2.63046C23.0925 2.26033 23.0925 1.64772 22.7224 1.27759C22.3522 0.907469 21.7395 0.907469 21.3693 1.27759L12 10.6455L2.63069 1.27759C2.26052 0.907469 1.64781 0.907469 1.27763 1.27759C0.907456 1.64772 0.907456 2.26033 1.27763 2.63046L10.6469 11.9984L1.27763 21.3664C0.907456 21.7365 0.907456 22.3491 1.27763 22.7192C1.4691 22.9107 1.71163 23 1.95416 23C2.19669 23 2.43922 22.9107 2.63069 22.7192L12 13.3513L21.3693 22.7192C21.5608 22.9107 21.8033 23 22.0458 23C22.2884 23 22.5309 22.9107 22.7224 22.7192C23.0925 22.3491 23.0925 21.7365 22.7224 21.3664L13.3531 11.9984Z" fill="#3C3B44"/>
</g>
<defs>
<clipPath id="clip0_4191_632">
<rect width="24" height="24" fill="white"/>
</clipPath>
</defs>
</svg>

<svg xmlns="http://www.w3.org/2000/svg" width="24" height="24" fill="none" viewBox="0 0 24 24"><g clip-path="url(#a)"><path fill="currentColor" d="m13.353 11.998 9.37-9.368a.963.963 0 0 0 0-1.352.963.963 0 0 0-1.354 0L12 10.646 2.63 1.277a.963.963 0 0 0-1.352 0 .963.963 0 0 0 0 1.352l9.369 9.368-9.37 9.368a.963.963 0 0 0 0 1.353.955.955 0 0 0 1.354.001L12 13.35l9.37 9.368a.95.95 0 0 0 1.352.001.963.963 0 0 0 0-1.354z"/></g><defs><clipPath id="a"><path fill="currentColor" d="M0 0h24v24H0z"/></clipPath></defs></svg>
